X: 2
T:Scarborough Fair / Canticle
M:3/4
L:1/4
C:Paul Simon and Art Garfunkel
P:ABC3B
Z:Transcribed by Thornton Rose
K:G
P:A
E3 | A3 | G2 F | E3 ||
P:B
E2 E | B/2 B3/2- B/2 B/2 | F3/2 G/2 F | E3- | E3 |
z B d | e2 d | B ^c A | B3- | B3- | B3- | B z e |
e2 e | d2 B | B A G | F3- | F3 | E2 B | A2 G |
F E D | E3- | E3- | E3- | E3 |]
P:C
E E E | B B B | (F G) F | E3- | E3 | z B d |
e2 d | B ^c A | B3- | B3- | B3 | z z e | e2 e |
d2 B | (B A) G | F3- | F3 | E2 B | A2 G | F E D |
E3- | E3- | E3- | E3 :|
W:
W:Part B:
W:Are you going to Scarborough Fair
W:Parsley, sage, rosemary, and thyme.
W:Remember me to one who lives there,
W:For she once was a true love of mine.
W:
W:Part C:
W:Tell her to make me a cambric shirt,
W:Parsley, sage, rosemary, and thyme,
W:Without no seems nor needle work,
W:Then she'll be a true love of mine.
W:
W:Tell her to find me an acre of land,
W:Parsley, sage, rosemary, and thyme,
W:Between the salt water and the sea strands,
W:Then she'll be a true love of mine.
W:
W:Tell her to reap it with a sickle of leather,
W:Parsley, sage, rosemary, and thyme,
W:And gather it all in a bunch of heather,
W:Then she'll be a true love of mine.
% Output from ABC2Win  Version 2.1 i on 10/10/2001



